car-light-high.svg

<svg fill="currentColor" viewBox="0 0 24 24"><path d="M13 4.8c-4 0-4 14.4 0 14.4s9-2.7 9-7.2-5-7.2-9-7.2m.1 12.4C12.7 16.8 12 15 12 12s.7-4.8 1.1-5.2C16 6.9 20 8.7 20 12s-4 5.1-6.9 5.2M2 5h7.5c-.2.4-.5.8-.6 1.4-.1.2-.1.4-.2.6H2zm6 6H2V9h6.2c-.1.6-.1 1.3-.2 2m.7 6c.2.8.5 1.4.9 2H2.1v-2zm-.5-2H2v-2h6c.1.7.1 1.4.2 2"/></svg>

<svg  viewBox="0 0 24 24" fill="currentColor"><path  d="M13,4.8C9,4.8 9,19.2 13,19.2C17,19.2 22,16.5 22,12C22,7.5 17,4.8 13,4.8M13.1,17.2C12.7,16.8 12,15 12,12C12,9 12.7,7.2 13.1,6.8C16,6.9 20,8.7 20,12C20,15.3 16,17.1 13.1,17.2M2,5H9.5C9.3,5.4 9,5.8 8.9,6.4C8.8,6.6 8.8,6.8 8.7,7H2V5M8,11H2V9H8.2C8.1,9.6 8.1,10.3 8,11M8.7,17C8.9,17.8 9.2,18.4 9.6,19H2.1V17H8.7M8.2,15H2V13H8C8.1,13.7 8.1,14.4 8.2,15Z"/></svg>
